X: 19768
T: Jenny's Wedding
R: reel
M: 4/4
K: Dmajor
|:D2FD ADFG|Adde fded|cAAB =c3d|eaag edcd|
D2FA dfed|cAAB =cdeg|fgef d2cA|1 (3Bcd AG EDB,C:|2 (3Bcd AG FDD2||
|:d2fd adfd|eAAB cdef|d2fd adfd|cdeg fddA|
d2fd adfd|cdef g2fg|afge faef|1 dBAG FDD2:|2 dBAF EDB,C||

